Sources/FrostedUI/Resources/Icons.xcassets/dashboard24.imageset/dashboard-24.svg

<svg width="24" height="24" viewBox="0 0 24 24" fill="none" xmlns="http://www.w3.org/2000/svg" data-fui-icon="true">
  <path
    d="M12 1.25C14.73 1.25 16.2864 1.23913 17.5596 1.68457C19.7857 2.46354 21.5365 4.21428 22.3154 6.44043C22.7609 7.7136 22.75 9.27002 22.75 12C22.75 14.73 22.7609 16.2864 22.3154 17.5596C21.5365 19.7857 19.7857 21.5365 17.5596 22.3154C16.2864 22.7609 14.73 22.75 12 22.75C9.27002 22.75 7.7136 22.7609 6.44043 22.3154C4.21428 21.5365 2.46354 19.7857 1.68457 17.5596C1.23913 16.2864 1.25 14.73 1.25 12C1.25 9.27002 1.23912 7.7136 1.68457 6.44043C2.46354 4.21428 4.21428 2.46354 6.44043 1.68457C7.7136 1.23912 9.27002 1.25 12 1.25ZM12 2.75C9.14435 2.75 7.90755 2.76047 6.93555 3.10059C5.14038 3.7288 3.7288 5.14038 3.10059 6.93555C2.76047 7.90755 2.75 9.14435 2.75 12C2.75 14.8556 2.76048 16.0925 3.10059 17.0645C3.72879 18.8596 5.14038 20.2712 6.93555 20.8994C7.90755 21.2395 9.14435 21.25 12 21.25C14.8557 21.25 16.0924 21.2395 17.0645 20.8994C18.8596 20.2712 20.2712 18.8596 20.8994 17.0645C21.2395 16.0924 21.25 14.8557 21.25 12C21.25 9.14435 21.2395 7.90755 20.8994 6.93555C20.2712 5.14038 18.8596 3.72879 17.0645 3.10059C16.0925 2.76048 14.8556 2.75 12 2.75ZM17.4697 8.96973C17.7626 8.67684 18.2374 8.67686 18.5303 8.96973C18.8232 9.26262 18.8232 9.73738 18.5303 10.0303L14.5908 13.9697C13.7122 14.8483 12.2878 14.8483 11.4092 13.9697L10.0303 12.5908C9.73741 12.2981 9.26258 12.2981 8.96973 12.5908L6.53027 15.0303C6.23738 15.3232 5.76262 15.3232 5.46973 15.0303C5.17686 14.7374 5.17684 14.2626 5.46973 13.9697L7.90918 11.5303C8.78782 10.6518 10.2122 10.6518 11.0908 11.5303L12.4697 12.9092C12.7626 13.2019 13.2374 13.2019 13.5303 12.9092L17.4697 8.96973Z"
    fill="currentColor"
  />
</svg>

<svg xmlns="http://www.w3.org/2000/svg" width="24" height="24" fill="none" data-fui-icon="true" viewBox="0 0 24 24"><path fill="currentColor" d="M12 1.25c2.73 0 4.286-.01 5.56.435a7.75 7.75 0 0 1 4.755 4.755c.446 1.274.435 2.83.435 5.56s.01 4.286-.435 5.56a7.75 7.75 0 0 1-4.755 4.755c-1.274.446-2.83.435-5.56.435s-4.286.01-5.56-.435a7.75 7.75 0 0 1-4.755-4.755c-.446-1.274-.435-2.83-.435-5.56s-.01-4.286.435-5.56A7.75 7.75 0 0 1 6.44 1.685C7.714 1.239 9.27 1.25 12 1.25m0 1.5c-2.856 0-4.092.01-5.064.35A6.25 6.25 0 0 0 3.1 6.937C2.76 7.908 2.75 9.144 2.75 12s.01 4.093.35 5.064A6.25 6.25 0 0 0 6.937 20.9c.972.34 2.208.351 5.064.351s4.092-.01 5.064-.35a6.25 6.25 0 0 0 3.835-3.835c.34-.973.351-2.21.351-5.065s-.01-4.092-.35-5.064A6.25 6.25 0 0 0 17.064 3.1c-.973-.34-2.21-.351-5.065-.351m5.47 6.22a.75.75 0 0 1 1.06 1.06l-3.94 3.94a2.25 2.25 0 0 1-3.18 0l-1.38-1.38a.75.75 0 0 0-1.06 0l-2.44 2.44a.75.75 0 1 1-1.06-1.06l2.44-2.44a2.25 2.25 0 0 1 3.18 0l1.38 1.38a.75.75 0 0 0 1.06 0z"/></svg>
